X:1
T:St. Ninian, 11.10.11.10
T:St. Ninian, 11.10.11.10
T:John Bacchus Dykes, 1866
T:Public Domain Courtesy of the Cyber Hymnal™
C:John Bacchus Dykes, 1866
Z:Public Domain
Z:Courtesy of the Cyber Hymnal™
%%score ( 1 2 ) ( 3 4 )
L:1/8
M:4/4
K:G
V:1 treble 
V:2 treble 
V:3 bass 
V:4 bass 
V:1
 [DG]4 [FG]2 [EG]2 | [DG]4 [DG]2 A2 | B4 [EA]2 [EG]2 | F4 [B,G]4 | [B,B]4 [GB]2 [GB]2 | %5
 [G^c]4 [Fd]2 [DF]2 | [DF]2 [DG]2 [^CE]4 | D8 | [=FA]4 [FB]2 [FB]2 | [Ec]4 A2 [DA]2 | %10
 [DB]4 E2 [EA]2 | G4 F4 | [EG]4 [Ec]2 [Ec]2 | [Dc]4 [DB]2 D2 | [CE]2 [CE]2 [CF]4 | [B,G]8 |] %16
V:2
 x8 | x6 A2 | G2 F2 x4 | D2 C2 x4 | x8 | x8 | x8 | D8 | x8 | x4 A2 x2 | x4 E2 x2 | D2 E2 F4 | x8 | %13
 x6 D2 | x8 | x8 |] %16
V:3
 [G,B,]4 [G,D]2 [G,C]2 | [G,B,]4 [B,D]2 [F,D]2 | [G,D]4 [C,C]2 [C,B,]2 | [D,A,]4 [G,,G,]4 | %4
 [G,D]4 [G,D]2 [F,D]2 | [E,A,]4 [D,A,]2 [^G,,B,]2 | [A,,A,]2 [A,,B,]2 [A,,G,]4 | [D,F,]8 | %8
 [D,D]4 [G,D]2 [G,D]2 | C4 [F,D]2 [F,C]2 | B,4 [C,G,]2 [C,C]2 | [D,B,]4 (A,2 C2) | %12
 [E,B,]4 A,2 [G,A,]2 | [F,A,]4 G,2 [B,,G,]2 | [C,C]2 [C,B,]2 [D,A,]4 | [G,,G,]8 |] %16
V:4
 x8 | x8 | x8 | x8 | x8 | x8 | x8 | x8 | x8 | (A,2 G,2) x4 | G,2 B,,2 x4 | x4 D,4 | x4 A,2 x2 | %13
 x4 G,2 x2 | x8 | x8 |] %16

